Sources/FrostedUI/Resources/Icons.xcassets/unpinFilled12.imageset/unpin-filled-12.svg

<svg width="12" height="12" viewBox="0 0 12 12" fill="none" xmlns="http://www.w3.org/2000/svg" data-fui-icon="true">
  <path
    d="M0.219727 0.219727C0.51262 -0.0731667 0.98738 -0.0731667 1.28027 0.219727L11.7803 10.7197C12.0732 11.0126 12.0732 11.4874 11.7803 11.7803C11.4874 12.0732 11.0126 12.0732 10.7197 11.7803L8.02732 9.08787C7.97106 9.03161 7.89475 9 7.81519 9H7.05C6.88431 9 6.75 9.13431 6.75 9.3V11.25C6.75 11.6642 6.41414 11.9999 6 12C5.58582 12 5.25 11.6642 5.25 11.25V9.3C5.25 9.13431 5.11569 9 4.95 9H3.2666C1.9064 8.99994 1.06583 7.516 1.76562 6.34961L2.93555 4.39941C2.97743 4.32959 2.99994 4.24939 3 4.16797C3 4.09919 2.97268 4.03322 2.92404 3.98459L0.219727 1.28027C-0.0731667 0.98738 -0.0731667 0.51262 0.219727 0.219727ZM7.25 0C8.21644 6.59684e-05 9 0.783542 9 1.75V4.16797C9.00006 4.24939 9.02256 4.32959 9.06445 4.39941L10.2344 6.34961C10.2936 6.44838 10.3415 6.54942 10.3789 6.65164C10.4684 6.89681 10.1839 7.02367 9.99932 6.83909L3.82301 0.661907C3.70045 0.539336 3.70623 0.336209 3.85495 0.247185C4.11676 0.0904659 4.42267 1.48894e-05 4.75 0H7.25Z"
    fill="currentColor"
  />
</svg>

<svg xmlns="http://www.w3.org/2000/svg" width="12" height="12" fill="none" data-fui-icon="true" viewBox="0 0 12 12"><path fill="currentColor" d="M.22.22a.75.75 0 0 1 1.06 0l10.5 10.5a.75.75 0 1 1-1.06 1.06L8.027 9.088A.3.3 0 0 0 7.815 9H7.05a.3.3 0 0 0-.3.3v1.95a.75.75 0 0 1-1.5 0V9.3a.3.3 0 0 0-.3-.3H3.267c-1.36 0-2.201-1.484-1.501-2.65l1.17-1.95A.45.45 0 0 0 3 4.167a.26.26 0 0 0-.076-.183L.22 1.28a.75.75 0 0 1 0-1.06M7.25 0C8.216 0 9 .784 9 1.75v2.418c0 .081.023.162.064.231l1.17 1.95q.089.15.145.303c.09.245-.195.372-.38.187L3.823.662C3.7.539 3.706.336 3.855.247 4.117.09 4.423 0 4.75 0z"/></svg>
